X: 1845
T: Sûzinâk Seyir
C: Rauf Yektâ
O: Turkey
F: http://compmusic.upf.edu/node/140
N: suzinak--seyir--semai--1--rauf_yekta
N: makam= suzinak
N: form= seyir
N: usul= semai = 3/4
M: 3/4
L: 1/16
K: C _1/4B _7/8e ^f 
Q: 1/4=120
%%MIDI tuningsystem comma53
G8 B2c2  | d8 B4  | c8 A4  | G8 z4  | d4 c4 B4  | \
w:   |   |   |   |   | 
c8 d4  | f8 e4  | d8 z4  | c8 e2f2  | 
w:   |   |   |   | 
g8 d4  | e4 d4 c4  | B8 z4  | A8 e4  | d4 c8  | \
w:   |   |   |   |   | 
B8 A4  | G8 z4  | G8 f4  | g8 f4  | =e8 f4  | 
w:   |   |   |   |   | 
g8 z4  | f4 g4 a4  | _b4 g8  | f8 e4  | d8 z4  | \
w:   |   |   |   |   | 
c8 e2f2  | g8 d4  | e4 d4 c4  | B8 z4  | 
w:   |   |   |   | 
A8 e4  | d4 c8  | B8 A4  | G8 z4  | |


